!!!OTL: IN LAUTERBACH HAB ICH MEIN STRUEMPFEL VERLOREN
!!!ARE: Europa, Mitteleuropa, Deutschland, Oberrhein; France, Elsass
!!!SCT: E1010
!!!YEM: Copyright 1995, estate of Helmut Schaffrath.
**kern
*ICvox
*Ivox
*M3/8
*k[f#]
*G:
{8d
=1
8.dd
16dd
8dd
=2
8b
8a
8g
=3
4a
8f#
=4
8d
8d}
{8d
=5
8.ee
16ee
8dd
=6
8cc
8b
8a
=7
[4.dd
=8
4dd]}
{8d
=9
8.dd
16dd
8dd
=10
8b
8a
8g
=11
4a
8f#
=12
8d
8d}
{8d
=13
8.ee
16ee
8dd
=14
8cc
8b
8a
=15
[4.g
=16
8g]
8r}
==
!!!AGN: Tanz - Lied
!!!ONB: ESAC (Essen Associative Code) Database: ERK3
!!!AMT: simple triple
!!!AIN: vox
!!!EED: Helmut Schaffrath
!!!EEV: 1.0
*-
